contributed-vectors/bellhop.svg

<svg xmlns="http://www.w3.org/2000/svg" xml:space="preserve" style="fill-rule:evenodd;clip-rule:evenodd;stroke-linejoin:round;stroke-miterlimit:2" viewBox="0 0 192 192"><path d="M164.5 21.5c0-5.519-4.481-10-10-10h-133c-5.519 0-10 4.481-10 10v133c0 5.519 4.481 10 10 10h133c5.519 0 10-4.481 10-10v-133Z" style="fill:#f8c18c" transform="translate(8 8)"/><path d="M54.925 99.925h-.001V46.513h.077c.62-4.52 4.947-8.025 10.187-8.025 5.239 0 9.566 3.505 10.187 8.025h.076v17.564A40.868 40.868 0 0 1 96 58.568c22.67 0 41.076 18.406 41.076 41.076 0 12.525-5.619 23.749-14.472 31.287l-21.67 16.573a8.12 8.12 0 0 1-9.868 0l-21.67-16.573c-8.787-7.481-14.387-18.593-14.471-31.006Zm27.766 15.42c-4.429-3.771-7.24-9.386-7.24-15.652 0-11.342 9.208-20.549 20.549-20.549s20.549 9.207 20.549 20.549c0 6.266-2.811 11.881-7.24 15.652l-8.153 6.684a8.132 8.132 0 0 1-10.312 0l-8.153-6.684Z" style="fill:#fff" transform="matrix(.86074 0 0 .86074 13.37 13.05)"/></svg>

<?xml version="1.0" encoding="UTF-8" standalone="no"?>
<!DOCTYPE svg PUBLIC "-//W3C//DTD SVG 1.1//EN" "http://www.w3.org/Graphics/SVG/1.1/DTD/svg11.dtd">
<svg width="100%" height="100%" viewBox="0 0 192 192" version="1.1" xmlns="http://www.w3.org/2000/svg" xmlns:xlink="http://www.w3.org/1999/xlink" xml:space="preserve" xmlns:serif="http://www.serif.com/" style="fill-rule:evenodd;clip-rule:evenodd;stroke-linejoin:round;stroke-miterlimit:2;">
    <g id="Layer1">
        <g transform="matrix(1,0,0,1,8,8)">
            <path d="M164.5,21.5C164.5,15.981 160.019,11.5 154.5,11.5L21.5,11.5C15.981,11.5 11.5,15.981 11.5,21.5L11.5,154.5C11.5,160.019 15.981,164.5 21.5,164.5L154.5,164.5C160.019,164.5 164.5,160.019 164.5,154.5L164.5,21.5Z" style="fill:rgb(248,193,140);"/>
        </g>
        <g transform="matrix(0.860737,0,0,0.860737,13.3692,13.0494)">
            <path d="M54.925,99.925L54.924,99.925L54.924,46.513L55.001,46.513C55.621,41.993 59.948,38.488 65.188,38.488C70.427,38.488 74.754,41.993 75.375,46.513L75.451,46.513L75.451,64.077C81.498,60.574 88.517,58.568 96,58.568C118.67,58.568 137.076,76.974 137.076,99.644C137.076,112.169 131.457,123.393 122.604,130.931C122.604,130.931 108.627,141.621 100.934,147.504C98.022,149.732 93.978,149.732 91.066,147.504C83.373,141.621 69.396,130.931 69.396,130.931C60.609,123.45 55.009,112.338 54.925,99.925ZM82.691,115.345C78.262,111.574 75.451,105.959 75.451,99.693C75.451,88.351 84.659,79.144 96,79.144C107.341,79.144 116.549,88.351 116.549,99.693C116.549,105.959 113.738,111.574 109.309,115.345C109.309,115.345 104.899,118.961 101.156,122.029C98.158,124.487 93.842,124.487 90.844,122.029C87.101,118.961 82.691,115.345 82.691,115.345Z" style="fill:white;"/>
        </g>
    </g>
</svg>
